;FLAVOR:Marlin
;TIME:347
;Filament used: 0.483749m
;Layer height: 0.8
;MINX:6
;MINY:6
;MINZ:0.3
;MAXX:34
;MAXY:34
;MAXZ:19.5
;Generated with Cura_SteamEngine 4.9.1
M104 S200
M105
M109 S200
M82 ;absolute extrusion mode

G92 E0
G92 E0
G1 F1500 E-6.5
;LAYER_COUNT:25
;LAYER:0
M107
G0 F3600 X7.004 Y7.369 Z0.3
;TYPE:SKIRT
G1 F1500 E0
G1 F1800 X7.406 Y6.972 E0.01063
G1 X7.86 Y6.635 E0.02126
G1 X8.357 Y6.366 E0.03189
G1 X8.887 Y6.169 E0.04253
G1 X9.44 Y6.05 E0.05317
G1 X10.218 Y6.002 E0.06783
G1 X10.33 Y6 E0.06994
G1 X29.35 Y6 E0.42772
G1 X30.048 Y6.01 E0.44085
G1 X30.612 Y6.058 E0.4515
G1 X31.162 Y6.185 E0.46211
G1 X31.69 Y6.389 E0.47276
G1 X32.184 Y6.664 E0.4834
G1 X32.633 Y7.007 E0.49402
G1 X33.03 Y7.409 E0.50465
G1 X33.367 Y7.864 E0.5153
G1 X33.635 Y8.361 E0.52592
G1 X33.831 Y8.891 E0.53655
G1 X33.951 Y9.444 E0.5472
G1 X33.998 Y10.218 E0.56178
G1 X34 Y10.33 E0.56389
G1 X34 Y29.314 E0.92099
G1 X33.991 Y30.041 E0.93467
G1 X33.944 Y30.604 E0.94529
G1 X33.818 Y31.155 E0.95593
G1 X33.616 Y31.683 E0.96656
G1 X33.341 Y32.177 E0.9772
G1 X32.999 Y32.627 E0.98783
G1 X32.597 Y33.025 E0.99847
G1 X32.144 Y33.362 E1.00909
G1 X31.647 Y33.632 E1.01973
G1 X31.117 Y33.829 E1.03036
G1 X30.565 Y33.95 E1.04099
G1 X29.782 Y33.998 E1.05575
G1 X29.67 Y34 E1.05786
G1 X10.655 Y34 E1.41554
G1 X9.957 Y33.991 E1.42867
G1 X9.394 Y33.943 E1.4393
G1 X8.843 Y33.817 E1.44993
G1 X8.315 Y33.615 E1.46057
G1 X7.821 Y33.34 E1.4712
G1 X7.371 Y32.998 E1.48183
G1 X6.973 Y32.596 E1.49247
G1 X6.637 Y32.142 E1.5031
G1 X6.367 Y31.645 E1.51374
G1 X6.17 Y31.115 E1.52437
G1 X6.05 Y30.563 E1.535
G1 X6.001 Y29.766 E1.55002
G1 X6 Y10.62 E1.91017
G1 X6.009 Y9.955 E1.92268
G1 X6.057 Y9.392 E1.93331
G1 X6.183 Y8.841 E1.94394
G1 X6.386 Y8.313 E1.95458
G1 X6.662 Y7.819 E1.96522
G1 X7.004 Y7.369 E1.97586
G0 F3600 X7.397 Y7.531
G1 F1800 X7.794 Y7.171 E1.98594
G1 X8.241 Y6.873 E1.99604
G1 X8.726 Y6.645 E2.00612
G1 X9.24 Y6.492 E2.01621
G1 X9.908 Y6.41 E2.02887
G1 X10.33 Y6.4 E2.03681
G1 X29.345 Y6.4 E2.39449
G1 X30.043 Y6.41 E2.40762
G1 X30.577 Y6.458 E2.41771
G1 X31.098 Y6.584 E2.42779
G1 X31.595 Y6.787 E2.43789
G1 X32.056 Y7.061 E2.44798
G1 X32.471 Y7.4 E2.45806
G1 X32.831 Y7.798 E2.46815
G1 X33.128 Y8.244 E2.47823
G1 X33.356 Y8.73 E2.48833
G1 X33.508 Y9.244 E2.49841
G1 X33.59 Y9.909 E2.51102
G1 X33.6 Y10.33 E2.51894
G1 X33.6 Y29.309 E2.87594
G1 X33.591 Y30.036 E2.88962
G1 X33.544 Y30.57 E2.8997
G1 X33.419 Y31.091 E2.90978
G1 X33.217 Y31.588 E2.91987
G1 X32.944 Y32.05 E2.92997
G1 X32.606 Y32.466 E2.94005
G1 X32.209 Y32.827 E2.95015
G1 X31.763 Y33.125 E2.96024
G1 X31.278 Y33.353 E2.97032
G1 X30.764 Y33.507 E2.98041
G1 X30.092 Y33.59 E2.99315
G1 X29.67 Y33.6 E3.00109
G1 X10.661 Y33.6 E3.35866
G1 X9.963 Y33.591 E3.37179
G1 X9.428 Y33.544 E3.38189
G1 X8.907 Y33.418 E3.39197
G1 X8.41 Y33.216 E3.40206
G1 X7.949 Y32.943 E3.41214
G1 X7.533 Y32.604 E3.42224
G1 X7.172 Y32.208 E3.43232
G1 X6.874 Y31.762 E3.44241
G1 X6.646 Y31.276 E3.4525
G1 X6.493 Y30.762 E3.46259
G1 X6.41 Y30.088 E3.47537
G1 X6.4 Y29.658 E3.48346
G1 X6.4 Y10.625 E3.84148
G1 X6.409 Y9.96 E3.85399
G1 X6.457 Y9.426 E3.86407
G1 X6.583 Y8.905 E3.87416
G1 X6.785 Y8.408 E3.88425
G1 X7.058 Y7.947 E3.89433
G1 X7.397 Y7.531 E3.90442
G0 F3600 X7.454 Y8.082
G1 F1800 X7.789 Y7.704 E3.91392
G1 X8.18 Y7.383 E3.92344
G1 X8.617 Y7.128 E3.93295
G1 X9.088 Y6.944 E3.94247
G1 X9.582 Y6.838 E3.95197
G1 X10.24 Y6.801 E3.96437
G1 X29.339 Y6.8 E4.32363
G1 X30.037 Y6.81 E4.33676
G1 X30.54 Y6.857 E4.34626
G1 X31.03 Y6.983 E4.35578
G1 X31.494 Y7.185 E4.3653
G1 X31.92 Y7.457 E4.37481
G1 X32.298 Y7.792 E4.38431
G1 X32.618 Y8.183 E4.39381
G1 X32.873 Y8.62 E4.40333
G1 X33.056 Y9.091 E4.41284
G1 X33.163 Y9.585 E4.42234
G1 X33.199 Y10.24 E4.43468
G1 X33.2 Y29.304 E4.79329
G1 X33.191 Y30.031 E4.80696
G1 X33.145 Y30.534 E4.81646
G1 X33.02 Y31.024 E4.82598
G1 X32.819 Y31.488 E4.83549
G1 X32.548 Y31.915 E4.845
G1 X32.213 Y32.294 E4.85452
G1 X31.823 Y32.615 E4.86402
G1 X31.387 Y32.871 E4.87353
G1 X30.916 Y33.054 E4.88303
G1 X30.422 Y33.162 E4.89255
G1 X29.76 Y33.199 E4.90502
G1 X10.666 Y33.2 E5.26419
G1 X9.968 Y33.191 E5.27732
G1 X9.464 Y33.144 E5.28684
G1 X8.974 Y33.019 E5.29635
G1 X8.51 Y32.818 E5.30586
G1 X8.084 Y32.547 E5.31536
G1 X7.705 Y32.212 E5.32488
G1 X7.384 Y31.821 E5.33439
G1 X7.129 Y31.385 E5.34389
G1 X6.945 Y30.914 E5.3534
G1 X6.838 Y30.42 E5.36291
G1 X6.801 Y29.744 E5.37565
G1 X6.8 Y10.631 E5.73517
G1 X6.809 Y9.966 E5.74768
G1 X6.856 Y9.462 E5.75721
G1 X6.982 Y8.973 E5.7667
G1 X7.183 Y8.509 E5.77622
G1 X7.454 Y8.082 E5.78573
G1 F1500 E-0.71427
;MESH:xyzCalibration_cube.stl
G0 F3600 X9.335 Y10.214
G0 X10.214 Y10.214
G0 X29.7 Y29.73
G0 X29.8 Y29.8
;TYPE:WALL-OUTER
G1 F1500 E5.78573
G1 F1800 X10.2 Y29.8 E6.15442
G1 X10.2 Y10.2 E6.5231
G1 X29.8 Y10.2 E6.89179
G1 X29.8 Y29.8 E7.26048
G0 F3600 X29.6 Y29.8
G0 X29.41 Y29.41
;TYPE:SKIN
G1 F1800 X10.59 Y29.41 E7.61449
G1 X10.59 Y10.59 E7.96851
G1 X29.41 Y10.59 E8.32252
G1 X29.41 Y29.41 E8.67654
G0 F3600 X29.229 Y11.127
G1 F1800 X28.871 Y10.769 E8.68606
G0 F3600 X28.306 Y10.769
G1 F1800 X29.229 Y11.693 E8.71063
G0 F3600 X29.229 Y12.259
G1 F1800 X27.74 Y10.769 E8.75025
G0 F3600 X27.174 Y10.769
G1 F1800 X29.229 Y12.824 E8.80492
G0 F3600 X29.229 Y13.39
G1 F1800 X26.609 Y10.769 E8.87463
G0 F3600 X26.043 Y10.769
G1 F1800 X29.229 Y13.956 E8.9594
G0 F3600 X29.229 Y14.521
G1 F1800 X25.477 Y10.769 E9.05921
G0 F3600 X24.912 Y10.769
G1 F1800 X29.229 Y15.087 E9.17406
G0 F3600 X29.229 Y15.653
G1 F1800 X24.346 Y10.769 E9.30397
G0 F3600 X23.78 Y10.769
G1 F1800 X29.229 Y16.218 E9.44893
G0 F3600 X29.229 Y16.784
G1 F1800 X23.215 Y10.769 E9.60893
G0 F3600 X22.649 Y10.769
G1 F1800 X29.229 Y17.35 E9.78398
G0 F3600 X29.229 Y17.915
G1 F1800 X22.083 Y10.769 E9.97408
G0 F3600 X21.517 Y10.769
G1 F1800 X29.229 Y18.481 E10.17924
G0 F3600 X29.229 Y19.047
G1 F1800 X20.952 Y10.769 E10.39944
G0 F3600 X20.386 Y10.769
G1 F1800 X29.229 Y19.613 E10.63469
G0 F3600 X29.229 Y20.178
G1 F1800 X19.82 Y10.769 E10.88499
G0 F3600 X19.255 Y10.769
G1 F1800 X29.229 Y20.744 E11.15034
G0 F3600 X29.229 Y21.31
G1 F1800 X18.689 Y10.769 E11.43074
G0 F3600 X18.123 Y10.769
G1 F1800 X29.229 Y21.875 E11.72618
G0 F3600 X29.229 Y22.441
G1 F1800 X17.558 Y10.769 E12.03667
G0 F3600 X16.992 Y10.769
G1 F1800 X29.229 Y23.007 E12.36221
G0 F3600 X29.229 Y23.572
G1 F1800 X16.426 Y10.769 E12.7028
G0 F3600 X15.861 Y10.769
G1 F1800 X29.229 Y24.138 E13.05843
G0 F3600 X29.229 Y24.704
G1 F1800 X15.295 Y10.769 E13.42912
G0 F3600 X14.729 Y10.769
G1 F1800 X29.229 Y25.269 E13.81485
G0 F3600 X29.229 Y25.835
G1 F1800 X14.164 Y10.769 E14.21562
G0 F3600 X13.598 Y10.769
G1 F1800 X29.229 Y26.401 E14.63145
G0 F3600 X29.229 Y26.966
G1 F1800 X13.032 Y10.769 E15.06233
G0 F3600 X12.466 Y10.769
G1 F1800 X29.229 Y27.532 E15.50826
G0 F3600 X29.229 Y28.098
G1 F1800 X11.901 Y10.769 E15.96923
G0 F3600 X11.335 Y10.769
G1 F1800 X29.229 Y28.663 E16.44525
G0 F3600 X29.229 Y29.229
G1 F1800 X10.769 Y10.769 E16.93633
G0 F3600 X10.769 Y11.335
G1 F1800 X28.663 Y29.229 E17.41235
G0 F3600 X28.098 Y29.229
G1 F1800 X10.769 Y11.901 E17.87332
G0 F3600 X10.769 Y12.466
G1 F1800 X27.532 Y29.229 E18.31925
G0 F3600 X26.966 Y29.229
G1 F1800 X10.769 Y13.032 E18.75013
G0 F3600 X10.769 Y13.598
G1 F1800 X26.401 Y29.229 E19.16596
G0 F3600 X25.835 Y29.229
G1 F1800 X10.769 Y14.164 E19.56674
G0 F3600 X10.769 Y14.729
G1 F1800 X25.269 Y29.229 E19.95247
G0 F3600 X24.704 Y29.229
G1 F1800 X10.769 Y15.295 E20.32315
G0 F3600 X10.769 Y15.861
G1 F1800 X24.138 Y29.229 E20.67878
G0 F3600 X23.572 Y29.229
G1 F1800 X10.769 Y16.426 E21.01937
G0 F3600 X10.769 Y16.992
G1 F1800 X23.007 Y29.229 E21.34492
G0 F3600 X22.441 Y29.229
G1 F1800 X10.769 Y17.558 E21.6554
G0 F3600 X10.769 Y18.123
G1 F1800 X21.875 Y29.229 E21.95085
G0 F3600 X21.31 Y29.229
G1 F1800 X10.769 Y18.689 E22.23125
G0 F3600 X10.769 Y19.255
G1 F1800 X20.744 Y29.229 E22.49659
G0 F3600 X20.178 Y29.229
G1 F1800 X10.769 Y19.82 E22.74689
G0 F3600 X10.769 Y20.386
G1 F1800 X19.613 Y29.229 E22.98214
G0 F3600 X19.047 Y29.229
G1 F1800 X10.769 Y20.952 E23.20234
G0 F3600 X10.769 Y21.517
G1 F1800 X18.481 Y29.229 E23.4075
G0 F3600 X17.915 Y29.229
G1 F1800 X10.769 Y22.083 E23.5976
G0 F3600 X10.769 Y22.649
G1 F1800 X17.35 Y29.229 E23.77265
G0 F3600 X16.784 Y29.229
G1 F1800 X10.769 Y23.215 E23.93265
G0 F3600 X10.769 Y23.78
G1 F1800 X16.218 Y29.229 E24.07761
G0 F3600 X15.653 Y29.229
G1 F1800 X10.769 Y24.346 E24.20752
G0 F3600 X10.769 Y24.912
G1 F1800 X15.087 Y29.229 E24.32237
G0 F3600 X14.521 Y29.229
G1 F1800 X10.769 Y25.477 E24.42219
G0 F3600 X10.769 Y26.043
G1 F1800 X13.956 Y29.229 E24.50695
G0 F3600 X13.39 Y29.229
G1 F1800 X10.769 Y26.609 E24.57666
G0 F3600 X10.769 Y27.174
G1 F1800 X12.824 Y29.229 E24.63133
G0 F3600 X12.259 Y29.229
G1 F1800 X10.769 Y27.74 E24.67096
G0 F3600 X10.769 Y28.306
G1 F1800 X11.693 Y29.229 E24.69552
G0 F3600 X11.127 Y29.229
G1 F1800 X10.769 Y28.871 E24.70505
;MESH:NONMESH
G0 F600 X10.769 Y28.871 Z1.1
G0 F3600 X29.73 Y29.73
G0 X29.8 Y29.8
;TIME_ELAPSED:49.245999
;LAYER:1
;TYPE:WALL-OUTER
;MESH:xyzCalibration_cube.stl
G1 F1800 X10.2 Y29.8 E25.68821
G1 X10.2 Y10.2 E26.67138
G1 X29.8 Y10.2 E27.65454
G1 X29.8 Y29.8 E28.63771
G0 F5400 X29.6 Y29.8
G0 X29.41 Y29.41
;TYPE:SKIN
G1 F1800 X10.59 Y29.41 E29.58175
G1 X10.59 Y10.59 E30.52578
G1 X29.41 Y10.59 E31.46982
G1 X29.41 Y29.41 E32.41386
G0 F5400 X29.035 Y29.229
G1 F1800 X29.229 Y29.035 E32.42763
G0 F5400 X29.229 Y28.47
G1 F1800 X28.47 Y29.229 E32.48147
G0 F5400 X27.904 Y29.229
G1 F1800 X29.229 Y27.904 E32.57546
G0 F5400 X29.229 Y27.338
G1 F1800 X27.338 Y29.229 E32.70961
G0 F5400 X26.773 Y29.229
G1 F1800 X29.229 Y26.773 E32.88383
G0 F5400 X29.229 Y26.207
G1 F1800 X26.207 Y29.229 E33.09821
G0 F5400 X25.641 Y29.229
G1 F1800 X29.229 Y25.641 E33.35274
G0 F5400 X29.229 Y25.076
G1 F1800 X25.076 Y29.229 E33.64735
G0 F5400 X24.51 Y29.229
G1 F1800 X29.229 Y24.51 E33.98211
G0 F5400 X29.229 Y23.944
G1 F1800 X23.944 Y29.229 E34.35703
G0 F5400 X23.379 Y29.229
G1 F1800 X29.229 Y23.379 E34.77202
G0 F5400 X29.229 Y22.813
G1 F1800 X22.813 Y29.229 E35.22716
G0 F5400 X22.247 Y29.229
G1 F1800 X29.229 Y22.247 E35.72246
G0 F5400 X29.229 Y21.682
G1 F1800 X21.682 Y29.229 E36.25784
G0 F5400 X21.116 Y29.229
G1 F1800 X29.229 Y21.116 E36.83337
G0 F5400 X29.229 Y20.55
G1 F1800 X20.55 Y29.229 E37.44905
G0 F5400 X19.984 Y29.229
G1 F1800 X29.229 Y19.984 E38.10488
G0 F5400 X29.229 Y19.419
G1 F1800 X19.419 Y29.229 E38.80079
G0 F5400 X18.853 Y29.229
G1 F1800 X29.229 Y18.853 E39.53685
G0 F5400 X29.229 Y18.287
G1 F1800 X18.287 Y29.229 E40.31307
G0 F5400 X17.722 Y29.229
G1 F1800 X29.229 Y17.722 E41.12936
G0 F5400 X29.229 Y17.156
G1 F1800 X17.156 Y29.229 E41.98581
G0 F5400 X16.59 Y29.229
G1 F1800 X29.229 Y16.59 E42.88241
G0 F5400 X29.229 Y16.025
G1 F1800 X16.025 Y29.229 E43.81909
G0 F5400 X15.459 Y29.229
G1 F1800 X29.229 Y15.459 E44.79592
G0 F5400 X29.229 Y14.893
G1 F1800 X14.893 Y29.229 E45.8129
G0 F5400 X14.328 Y29.229
G1 F1800 X29.229 Y14.328 E46.86996
G0 F5400 X29.229 Y13.762
G1 F1800 X13.762 Y29.229 E47.96718
G0 F5400 X13.196 Y29.229
G1 F1800 X29.229 Y13.196 E49.10454
G0 F5400 X29.229 Y12.631
G1 F1800 X12.631 Y29.229 E50.28199
G0 F5400 X12.065 Y29.229
G1 F1800 X29.229 Y12.065 E51.49959
G0 F5400 X29.229 Y11.499
G1 F1800 X11.499 Y29.229 E52.75734
G0 F5400 X10.933 Y29.229
G1 F1800 X29.229 Y10.933 E54.05524
G0 F5400 X28.828 Y10.769
G1 F1800 X10.769 Y28.828 E55.33633
G0 F5400 X10.769 Y28.262
G1 F1800 X28.262 Y10.769 E56.57726
G0 F5400 X27.696 Y10.769
G1 F1800 X10.769 Y27.696 E57.77805
G0 F5400 X10.769 Y27.13
G1 F1800 X27.13 Y10.769 E58.93868
G0 F5400 X26.565 Y10.769
G1 F1800 X10.769 Y26.565 E60.05924
G0 F5400 X10.769 Y25.999
G1 F1800 X25.999 Y10.769 E61.13964
G0 F5400 X25.433 Y10.769
G1 F1800 X10.769 Y25.433 E62.17989
G0 F5400 X10.769 Y24.868
G1 F1800 X24.868 Y10.769 E63.18006
G0 F5400 X24.302 Y10.769
G1 F1800 X10.769 Y24.302 E64.14008
G0 F5400 X10.769 Y23.736
G1 F1800 X23.736 Y10.769 E65.05994
G0 F5400 X23.171 Y10.769
G1 F1800 X10.769 Y23.171 E65.93973
G0 F5400 X10.769 Y22.605
G1 F1800 X22.605 Y10.769 E66.77936
G0 F5400 X22.039 Y10.769
G1 F1800 X10.769 Y22.039 E67.57885
G0 F5400 X10.769 Y21.474
G1 F1800 X21.474 Y10.769 E68.33825
G0 F5400 X20.908 Y10.769
G1 F1800 X10.769 Y20.908 E69.0575
G0 F5400 X10.769 Y20.342
G1 F1800 X20.342 Y10.769 E69.7366
G0 F5400 X19.777 Y10.769
G1 F1800 X10.769 Y19.777 E70.37562
G0 F5400 X10.769 Y19.211
G1 F1800 X19.211 Y10.769 E70.97449
G0 F5400 X18.645 Y10.769
G1 F1800 X10.769 Y18.645 E71.5332
G0 F5400 X10.769 Y18.08
G1 F1800 X18.08 Y10.769 E72.05184
G0 F5400 X17.514 Y10.769
G1 F1800 X10.769 Y17.514 E72.53032
G0 F5400 X10.769 Y16.948
G1 F1800 X16.948 Y10.769 E72.96865
G0 F5400 X16.382 Y10.769
G1 F1800 X10.769 Y16.382 E73.36684
G0 F5400 X10.769 Y15.817
G1 F1800 X15.817 Y10.769 E73.72494
G0 F5400 X15.251 Y10.769
G1 F1800 X10.769 Y15.251 E74.04288
G0 F5400 X10.769 Y14.685
G1 F1800 X14.685 Y10.769 E74.32068
G0 F5400 X14.12 Y10.769
G1 F1800 X10.769 Y14.12 E74.5584
G0 F5400 X10.769 Y13.554
G1 F1800 X13.554 Y10.769 E74.75596
G0 F5400 X12.988 Y10.769
G1 F1800 X10.769 Y12.988 E74.91338
G0 F5400 X10.769 Y12.423
G1 F1800 X12.423 Y10.769 E75.03071
G0 F5400 X11.857 Y10.769
G1 F1800 X10.769 Y11.857 E75.10789
G0 F5400 X10.769 Y11.291
G1 F1800 X11.291 Y10.769 E75.14492
;MESH:NONMESH
G0 F600 X11.291 Y10.769 Z1.9
G0 F5400 X10.359 Y10.359
;TIME_ELAPSED:84.340473
;LAYER:2
;TYPE:FILL
;MESH:xyzCalibration_cube.stl
G1 F3600 X29.639 Y29.639 E76.51263
G1 X29.709 Y29.709
G0 F7200 X29.7 Y29.709
G0 X27.33 Y29.639
G1 F3600 X29.639 Y27.33 E76.67643
G1 X29.709 Y27.26
G0 F7200 X29.7 Y27.26
G0 X29.639 Y23.982
G1 F3600 X16.016 Y10.359 E77.64283
G1 X15.946 Y10.289
G0 F7200 X15.946 Y10.3
G0 X18.326 Y10.359
G1 F3600 X10.359 Y18.326 E78.208
G1 X10.289 Y18.396
G0 F7200 X10.3 Y18.396
G0 X10.359 Y16.016
G1 F3600 X23.982 Y29.639 E79.1744
G1 X24.052 Y29.709
G0 F7200 X24.052 Y29.7
G0 X21.673 Y29.639
G1 F3600 X29.639 Y21.673 E79.7395
G1 X29.709 Y21.603
G0 F7200 X29.7 Y21.603
G0 X29.639 Y18.326
G1 F3600 X21.673 Y10.359 E80.30464
G1 X21.603 Y10.289
G0 F7200 X21.603 Y10.3
G0 X23.982 Y10.359
G1 F3600 X10.359 Y23.982 E81.27104
G1 X10.289 Y24.052
G0 F7200 X10.3 Y24.052
G0 X10.359 Y21.673
G1 F3600 X18.326 Y29.639 E81.83618
G1 X18.396 Y29.709
G0 F7200 X18.396 Y29.7
G0 X16.016 Y29.639
G1 F3600 X29.639 Y16.016 E82.80258
G1 X29.709 Y15.946
G0 F7200 X29.7 Y15.946
G0 X29.639 Y12.669
G1 F3600 X27.33 Y10.359 E82.96641
G1 X27.26 Y10.289
G0 F7200 X27.26 Y10.3
G0 X29.639 Y10.359
G1 F3600 X10.359 Y29.639 E84.33412
G1 X10.289 Y29.709
G0 F7200 X10.3 Y29.709
G0 X10.359 Y27.33
G1 F3600 X12.669 Y29.639 E84.49795
G1 X12.739 Y29.709
G0 F7200 X12.739 Y29.7
G0 X10.359 Y12.669
G1 F3600 X12.669 Y10.359 E84.66182
G1 X12.739 Y10.289
G0 F7200 X12.739 Y10.3
G0 X29.73 Y29.73
G0 X29.8 Y29.8
;TYPE:WALL-OUTER
G1 F1800 X10.2 Y29.8 E85.64499
G1 X10.2 Y10.2 E86.62815
G1 X29.8 Y10.2 E87.61132
G1 X29.8 Y29.8 E88.59448
G0 F7200 X29.6 Y29.8
G0 X29.4 Y29.4
;MESH:NONMESH
G0 F600 X29.4 Y29.4 Z2.7
G0 F7200 X10.359 Y10.359
;TIME_ELAPSED:91.665961
;LAYER:3
;TYPE:FILL
;MESH:xyzCalibration_cube.stl
G1 F3600 X29.639 Y29.639 E89.96219
G1 X29.709 Y29.709
G0 F7200 X29.7 Y29.709
G0 X29.639 Y27.331
G1 F3600 X27.33 Y29.639 E90.12595
G1 X27.26 Y29.709
G0 F7200 X27.26 Y29.7
G0 X23.982 Y29.639
G1 F3600 X10.359 Y16.016 E91.09235
G1 X10.289 Y15.946
G0 F7200 X10.3 Y15.946
G0 X10.359 Y18.326
G1 F3600 X16.434 Y12.251 E91.52331
G1 X16.504 Y12.181
G0 F7200 X17.143 Y11.542
G1 F3600 X18.326 Y10.359 E91.60723
G1 X18.396 Y10.289
G0 F7200 X18.396 Y10.3
G0 X17.143 Y11.486
G1 F3600 X29.639 Y23.982 E92.49368
G1 X29.709 Y24.052
G0 F7200 X29.7 Y24.052
G0 X29.639 Y21.674
G1 F3600 X21.673 Y29.639 E93.05875
G1 X21.603 Y29.709
G0 F7200 X21.603 Y29.7
G0 X18.326 Y29.639
G1 F3600 X10.359 Y21.673 E93.62388
G1 X10.289 Y21.603
G0 F7200 X10.3 Y21.603
G0 X10.359 Y23.982
G1 F3600 X22.09 Y12.252 E94.45603
G1 X22.16 Y12.182
G0 F7200 X23.565 Y12.252
G1 F3600 X29.639 Y18.326 E94.88692
G1 X29.709 Y18.396
G0 F7200 X29.7 Y18.396
G0 X29.639 Y16.017
G1 F3600 X16.016 Y29.639 E95.85329
G1 X15.946 Y29.709
G0 F7200 X15.946 Y29.7
G0 X12.669 Y29.639
G1 F3600 X10.359 Y27.33 E96.01712
G1 X10.289 Y27.26
G0 F7200 X10.3 Y27.26
G0 X10.359 Y29.639
